packages/kaspersky-hexa-ui-icons/src/iconsSVGs/24/FavoriteSolid.svg

<svg width="24" height="24" viewBox="0 0 24 24" fill="none" xmlns="http://www.w3.org/2000/svg">
<path fill-rule="evenodd" clip-rule="evenodd" d="M10.8921 2.56265C11.302 1.5771 12.6982 1.5771 13.1081 2.56265L15.4661 8.2321L21.5868 8.72279C22.6508 8.80809 23.0822 10.1359 22.2716 10.8303L17.6083 14.8249L19.033 20.7976C19.2807 21.8359 18.1512 22.6565 17.2402 22.1001L12.0001 18.8995L6.75998 22.1001C5.84906 22.6565 4.71956 21.8359 4.96722 20.7976L6.39193 14.8249L1.72865 10.8303C0.918005 10.1359 1.34943 8.80809 2.41342 8.72279L8.53406 8.2321L10.8921 2.56265Z" fill="black"/>
</svg>

<svg xmlns="http://www.w3.org/2000/svg" width="24" height="24" fill="none" viewBox="0 0 24 24"><path fill="#000" fill-rule="evenodd" d="M10.8921 2.5627c.4099-.9856 1.8061-.9856 2.216 0l2.358 5.6694 6.1207.4907c1.064.0853 1.4954 1.4131.6848 2.1075l-4.6633 3.9946 1.4247 5.9727c.2477 1.0383-.8818 1.8589-1.7928 1.3025l-5.2401-3.2006L6.76 22.1001c-.911.5564-2.0404-.2642-1.7928-1.3025l1.4247-5.9727-4.6632-3.9946c-.8107-.6944-.3793-2.0222.6847-2.1075l6.1207-.4907z"/></svg>
